X:1
T:Title
%%score { 1 | 2 }
L:1/8
Q:1/4=94
M:2/4
K:C
V:1 treble nm="Grand Piano"
V:2 bass 
V:1
 [EG][EG] [EG][FA] | [EG][CE] [G,C]2 | [B,D][CE] [DF]2 | [CE][DF] [EG]2 | [EG][EG] [EG][FA] | %5
w: Clinton~D.~Lowden * * *|||||
 [EG]E C2 | DF E[B,D] | C4 | GG d2 | [Ec][Ec] [EG]2 | [FA][Ac] [GB][FA] | [EG]4 | FA GF | %13
w: ||||||||
 E[DF] [EG]2 | Ad c[DB] | [Ec]4 |] %16
w: |||
V:2
 [C,C][C,C] [C,C][C,C] | [C,C][C,G,] [C,E,]2 | [G,,G,][G,,G,] [G,,G,]2 | [C,G,][C,G,] [C,C]2 | %4
 [C,C][C,C] [C,C][C,C] | [C,C][C,G,C] [C,E,G,]2 | [F,A,][D,A,D] [G,C][G,,F,] | [C,E,]4 | %8
 [G,B,F][G,B,F] [G,B,F]2 | [C,G,][C,G,] [C,C]2 | [F,C][F,A,] [F,B,][F,C] | [C,C]4 | %12
 [G,B,D][G,B,F][K:bass] [G,B,E][G,B,D] | [C,G,C][C,G,] [C,C]2 | [F,CF][F,A,F] [G,E][G,,G,] | %15
 [C,G,]4 |] %16

